X: 305585
M: C|
L: 1/8
K: G
g |\
d<Gd>B dGdB | dGdB eAAB |\
dGdB gaba | ge e/d/c/B/ dBB :: b |\
gedB gaba | gedB aAAb |\
gedB gaba | g>e e/d/c/B/ dGG :|
|: e |\
dG d/c/B dG d/c/B | dG d/c/B eAAB |\
dA d/c/B gaba | g>e e/d/c/B/ dGG :: b |\
gbdb gbdb | gbdb aAAb |\
gbdb gaba | g>e e/d/c/B/ dGG :|
|: B |\
dedB GABG | AcBd AA,A,B |\
dedB GABG | G>E E/D/C/B,/ DG,G, :|


